assets/Volleyball/Flat/volleyball_flat.svg

<svg width="32" height="32" viewBox="0 0 32 32" fill="none" xmlns="http://www.w3.org/2000/svg">
<path d="M16 1C7.71573 1 1 7.71573 1 16C1 24.2843 7.71573 31 16 31C24.2843 31 31 24.2843 31 16C31 7.71573 24.2843 1 16 1Z" fill="#9B9B9B"/>
<path d="M16 30C23.732 30 30 23.732 30 16C30 8.26801 23.732 2 16 2C8.26802 2 2 8.26801 2 16C2 23.732 8.26802 30 16 30Z" fill="#F4F4F4"/>
<path d="M8.46999 10.4202C8.28456 10.7019 8.14822 10.9287 8.05764 11.0862C8.85259 12.3091 9.80251 13.1656 10.7556 13.7697C10.8829 13.506 11.0728 13.1406 11.3337 12.707C11.8678 11.8197 12.703 10.641 13.9143 9.46244C16.0923 7.34323 19.4699 5.24305 24.4343 4.82499C25.0081 5.25874 25.5474 5.73568 26.0475 6.25095C20.6325 6.30278 17.1246 8.43175 14.9603 10.5375C13.859 11.609 13.1005 12.6803 12.6189 13.4805C12.3784 13.8802 12.2078 14.2108 12.0987 14.4379L12.0854 14.4657C13.0532 14.8765 13.9676 15.0758 14.6705 15.1708C15.0245 15.2186 15.3221 15.2397 15.5423 15.2483C15.6836 14.9923 15.8929 14.6416 16.1756 14.2401C16.7492 13.4254 17.6353 12.3867 18.8811 11.5113C21.1134 9.9427 24.4042 8.96907 28.8888 10.5251C29.1435 11.124 29.3577 11.7443 29.5279 12.3825C28.1504 11.7889 26.9057 11.4552 25.7843 11.3159C25.8013 11.3516 25.8185 11.3881 25.8358 11.4254C26.2273 12.2653 26.7132 13.4812 27.1015 15.0019C27.7031 17.3584 28.0709 20.4506 27.4865 24.0055C26.8838 24.8687 26.1863 25.6608 25.409 26.3667C26.7123 21.9485 26.3496 18.1204 25.6481 15.373C25.2864 13.9563 24.8348 12.8284 24.4762 12.059C24.316 11.7151 24.1746 11.4434 24.0685 11.2501C22.6596 11.3242 21.4894 11.7194 20.5302 12.2472C20.6679 12.4919 20.8303 12.7994 21.0024 13.1646C21.4738 14.1648 22.0215 15.6039 22.3322 17.37C22.8972 20.5819 22.6714 24.8454 19.8419 29.4662C19.1687 29.6579 18.4749 29.8005 17.7646 29.8898C21.1412 25.1393 21.4111 20.7914 20.8549 17.6299C20.5718 16.0211 20.0726 14.7102 19.6456 13.8041C19.514 13.5249 19.3895 13.2847 19.2809 13.0869C18.4504 13.7553 17.8305 14.4951 17.4021 15.1036C17.1507 15.4607 16.9679 15.7687 16.8494 15.9843L16.8285 16.0225L16.8508 16.0779C16.9513 16.3303 17.0815 16.6919 17.2068 17.143C17.4569 18.0433 17.6909 19.3117 17.624 20.784C17.5025 23.4569 16.3904 26.7222 12.7782 29.6276C12.1722 29.4848 11.5814 29.3027 11.0086 29.0841C12.1111 28.3039 12.9883 27.4964 13.6824 26.6848C10.714 26.3966 7.86806 25.1991 5.7067 24.0353C5.01554 23.6632 4.38837 23.2912 3.84257 22.9476C3.37096 22.1241 2.98061 21.2482 2.68244 20.3306C2.70148 20.3451 2.72175 20.3605 2.74324 20.3767C2.92641 20.5148 3.1975 20.7139 3.54387 20.9537C4.23724 21.4337 5.22883 22.0744 6.41785 22.7146C8.74296 23.9666 11.7502 25.1769 14.7297 25.2468C15.4774 24.0197 15.8609 22.8145 16.028 21.712C15.9257 21.7249 15.8177 21.7367 15.7041 21.7469C14.7683 21.8316 13.4542 21.8132 11.9061 21.4137C9.07779 20.6838 5.55269 18.7045 2.1499 13.9425C2.25099 13.2561 2.40189 12.586 2.5988 11.9358C6.06944 17.2938 9.63917 19.2795 12.2809 19.9613C13.6391 20.3118 14.7781 20.3246 15.5689 20.253C15.7846 20.2335 15.9742 20.2077 16.1352 20.1808C16.1254 19.1295 15.949 18.2195 15.7615 17.5445C15.6709 17.2184 15.5783 16.9492 15.5019 16.7478C15.2374 16.738 14.8853 16.7135 14.4696 16.6573C13.5451 16.5323 12.2918 16.249 10.9838 15.6117C8.53912 14.4207 5.98422 12.0296 4.9809 7.36279C5.37217 6.86433 5.79653 6.39308 6.25068 5.95234C6.45639 7.35934 6.80147 8.55043 7.2408 9.55946C7.6656 8.91757 8.30624 8.04176 9.1932 7.05977C10.6257 5.47381 12.7027 3.60876 15.551 2.00706C15.7 2.00236 15.8496 2 15.9998 2C16.8456 2 17.6739 2.07501 18.4784 2.21873C14.632 3.91547 11.9883 6.203 10.3064 8.0652C9.45999 9.00224 8.85796 9.83073 8.46999 10.4202Z" fill="#BEBEBE"/>
</svg>

<svg xmlns="http://www.w3.org/2000/svg" width="32" height="32" fill="none"><path fill="#9B9B9B" d="M16 1C7.716 1 1 7.716 1 16c0 8.284 6.716 15 15 15 8.284 0 15-6.716 15-15 0-8.284-6.716-15-15-15Z"/><path fill="#F4F4F4" d="M16 30c7.732 0 14-6.268 14-14S23.732 2 16 2 2 8.268 2 16s6.268 14 14 14Z"/><path fill="#BEBEBE" d="M8.47 10.42c-.185.282-.322.509-.412.666a8.84 8.84 0 0 0 2.698 2.684c.127-.264.317-.63.578-1.063a16.27 16.27 0 0 1 2.58-3.245c2.178-2.119 5.556-4.219 10.52-4.637.574.434 1.113.91 1.613 1.426-5.415.052-8.922 2.18-11.087 4.286a14.766 14.766 0 0 0-2.341 2.943c-.24.4-.411.73-.52.958l-.014.028a10.14 10.14 0 0 0 3.457.782c.142-.256.35-.606.634-1.008a11.293 11.293 0 0 1 2.705-2.729c2.232-1.568 5.523-2.542 10.008-.986.255.599.469 1.22.639 1.857-1.378-.593-2.622-.927-3.744-1.066l.052.11c.391.84.877 2.055 1.266 3.576.601 2.356.969 5.449.384 9.004-.602.863-1.3 1.655-2.077 2.36 1.303-4.418.94-8.246.24-10.993a19.06 19.06 0 0 0-1.173-3.314c-.16-.344-.301-.616-.407-.809a8.136 8.136 0 0 0-3.539.997c.138.245.3.552.472.918.472 1 1.02 2.439 1.33 4.205.565 3.212.34 7.475-2.49 12.096-.673.192-1.367.334-2.077.424 3.376-4.75 3.646-9.099 3.09-12.26a15.233 15.233 0 0 0-1.21-3.826c-.131-.28-.255-.52-.364-.717a9.968 9.968 0 0 0-2.432 2.897l-.02.039.022.055c.1.252.23.614.356 1.065.25.9.484 2.169.417 3.641-.121 2.673-1.234 5.938-4.846 8.844a13.91 13.91 0 0 1-1.77-.544c1.103-.78 1.98-1.588 2.674-2.4-2.968-.287-5.814-1.485-7.975-2.649a31.855 31.855 0 0 1-1.864-1.087c-.472-.824-.862-1.7-1.16-2.617l.06.046c.183.138.454.337.8.577.694.48 1.686 1.12 2.875 1.76 2.325 1.253 5.332 2.463 8.312 2.533a9.472 9.472 0 0 0 1.298-3.535c-.102.013-.21.025-.324.035-.936.085-2.25.066-3.798-.333-2.828-.73-6.353-2.71-9.756-7.472.101-.686.252-1.356.449-2.006 3.47 5.358 7.04 7.343 9.682 8.025a9.696 9.696 0 0 0 3.288.292c.216-.02.405-.045.566-.072a10.276 10.276 0 0 0-.374-2.637 9.204 9.204 0 0 0-.26-.796 11.544 11.544 0 0 1-4.518-1.136C8.54 14.42 5.985 12.03 4.982 7.362c.391-.498.816-.969 1.27-1.41.205 1.407.55 2.598.99 3.607a21.312 21.312 0 0 1 1.952-2.5 25.207 25.207 0 0 1 6.358-5.052 14.234 14.234 0 0 1 2.927.212c-3.846 1.696-6.49 3.984-8.172 5.846A19.752 19.752 0 0 0 8.47 10.42Z"/></svg>
